frontend/public/svg/files/file-csv.svg

<svg width="142" height="174" viewBox="0 0 142 174" fill="none" xmlns="http://www.w3.org/2000/svg">
<g clip-path="url(#clip0)">
<path d="M54.8974 173.749C53.802 173.598 52.7111 173.351 51.6118 173.311C43.422 173.009 35.225 172.86 27.0424 172.43C22.3443 172.183 17.6443 171.667 12.9909 170.971C8.02371 170.227 3.07622 164.295 2.88917 158.894C2.41529 145.225 1.87841 131.553 1.73008 117.878C1.38682 86.3565 1.30806 54.8327 0.991701 23.3108C0.945101 18.6659 0.991697 14.147 2.85832 9.80135C4.33508 6.36739 6.37104 3.51088 10.1693 2.45024C11.4617 2.09352 12.7912 1.88807 14.1309 1.83749C20.1863 1.60252 26.2581 1.63421 32.3003 1.22794C53.4049 -0.192378 74.5029 0.956345 95.6074 1.08564C97.7162 1.04224 99.8112 1.43027 101.765 2.22526C103.718 3.02025 105.489 4.2054 106.968 5.70885C113.794 12.1993 121.123 18.1546 128.204 24.3766C130.901 26.7454 133.389 29.3538 136.146 31.6464C138.806 33.8595 139.756 36.6729 139.83 39.948C140.039 49.4787 140.216 59.0103 140.451 68.5402C140.828 83.7902 141.388 99.0382 141.588 114.288C141.734 125.386 141.427 136.488 141.316 147.589C141.277 151.402 141.159 155.216 141.185 159.028C141.25 167.885 134.218 172.692 126.891 172.816C113.538 173.041 100.183 173.138 86.8289 173.322C85.6153 173.399 84.4063 173.54 83.2072 173.745L54.8974 173.749ZM93.8497 9.50521C91.8006 9.33391 90.0357 9.08483 88.2669 9.05464C74.2351 8.81619 60.2026 8.60288 46.1701 8.41562C39.776 8.32899 33.3807 8.29348 26.986 8.25476C23.7371 8.23572 20.481 8.13235 17.24 8.29578C12.5977 8.53009 11.2345 9.86659 10.4049 14.5496C9.61093 18.7432 9.44744 23.0318 9.91987 27.2738C10.1403 29.0548 10.2553 30.8472 10.2644 32.6418C10.3401 72.6869 10.4029 112.732 10.4528 152.778C10.4133 153.785 10.4501 154.795 10.5631 155.798C11.3572 160.897 14.0541 164.029 19.6415 164.255C41.4182 165.131 63.1942 165.129 84.9774 164.748C95.866 164.558 106.757 164.481 117.647 164.36C120.338 164.33 123.036 164.435 125.72 164.294C130.146 164.056 132.487 161.638 132.439 157.21C132.385 152.282 132.02 147.357 131.938 142.428C131.842 136.709 132.037 130.984 131.872 125.267C131.468 111.031 130.773 96.8014 130.5 82.5628C130.278 70.9017 130.5 59.2315 130.512 47.5651C130.512 46.62 130.401 45.6744 130.368 45.1513C122.878 45.1513 115.808 45.2132 108.739 45.1148C106.499 45.0863 104.267 44.8182 102.083 44.3149C98.5458 43.4899 96.4357 41.2656 96.3372 37.4464C96.3057 36.2138 96.206 34.9818 96.0924 33.7538C95.3685 25.8325 94.6321 17.9129 93.8497 9.50521ZM125.21 35.8344L125.414 35.1364L103.158 14.9527L102.647 15.2648C103.737 22.4229 104.827 29.5814 105.954 36.9842L125.21 35.8344Z" fill="black"/>
<path d="M101.852 133.426C102.896 128.917 103.776 124.931 104.757 120.971C105.18 119.12 105.756 117.308 106.479 115.552C106.971 114.426 107.726 113.434 108.68 112.659C109.104 112.282 109.615 112.017 110.167 111.888C110.719 111.759 111.295 111.771 111.841 111.922C112.388 112.072 112.889 112.356 113.298 112.749C113.706 113.142 114.01 113.631 114.182 114.172C114.712 115.636 114.857 117.212 114.605 118.749C113.025 126.532 111.278 134.282 109.5 142.022C109.191 143.442 108.639 144.799 107.867 146.031C105.749 149.275 101.774 149.438 99.3914 146.394C98.4509 145.139 97.6646 143.774 97.0502 142.331C93.2527 133.85 89.5253 125.338 85.7488 116.848C85.1055 115.404 84.8338 114.03 86.2239 112.9C87.4172 111.928 89.4597 112.208 90.7678 113.633C91.6604 114.636 92.427 115.743 93.0518 116.931C95.6115 121.656 98.0991 126.426 100.616 131.173C100.922 131.759 101.248 132.333 101.852 133.426Z" fill="black"/>
<path d="M64.4862 123.008C66.6948 124.017 68.8469 124.915 70.9183 125.969C73.3028 127.182 75.9117 128.188 77.9024 129.892C82.5243 133.848 83.9761 138.849 80.6354 144.585C77.6865 149.648 72.2277 151.608 66.4185 149.48C64.7407 148.856 63.1254 148.075 61.5937 147.148C60.9508 146.789 60.4149 146.266 60.0405 145.632C59.6661 144.998 59.4667 144.274 59.4626 143.538C59.4055 140.982 61.1828 139.601 63.6586 140.351C65.1223 140.903 66.6173 141.369 68.1354 141.747C71.2255 142.293 72.7954 141.319 74.1639 138.306C73.5371 135.994 71.6239 135.037 69.6522 134.165C67.296 133.124 64.8491 132.261 62.5736 131.066C56.6745 127.973 55.2154 123.25 58.249 117.283C60.1773 113.491 63.0495 110.807 67.4463 110.195C69.1678 109.957 70.8225 110.23 72.1063 111.562C72.5788 111.968 72.9155 112.51 73.0711 113.113C73.2266 113.716 73.1938 114.352 72.9772 114.936C72.527 116.131 71.5897 116.519 70.363 116.681C66.5464 117.192 65.491 118.295 64.4862 123.008Z" fill="black"/>
<path d="M44.0501 142.683C45.733 142.683 47.4165 142.668 49.0987 142.687C51.5383 142.716 52.9468 143.715 53.3439 145.661C53.7377 147.586 52.5635 149.558 50.225 150.185C46.0061 151.395 41.5908 151.765 37.2295 151.274C35.673 151.076 34.1361 150.747 32.6351 150.29C24.1382 147.694 20.0098 141.515 21.0284 132.71C21.8055 125.992 24.5956 120.245 30.0564 116.045C32.3903 114.25 35.0005 112.764 38.0735 113.096C39.4821 113.298 40.8102 113.876 41.9177 114.769C42.2721 115.101 42.5209 115.529 42.6331 116.002C42.7453 116.474 42.7159 116.969 42.5484 117.425C42.3809 117.88 42.083 118.276 41.6917 118.563C41.3004 118.851 40.8332 119.015 40.3484 119.039C36.2397 119.126 33.7364 121.518 31.8107 124.698C29.9454 127.661 28.9983 131.109 29.0889 134.609C29.2281 138.674 30.8033 140.819 34.7091 141.977C36.2205 142.391 37.7703 142.649 39.3343 142.747C40.8951 142.874 42.4743 142.774 44.0455 142.774L44.0501 142.683Z" fill="black"/>
</g>
<defs>
<clipPath id="clip0">
<rect width="141.113" height="173.93" fill="white" transform="translate(0.841797 0.0107422)"/>
</clipPath>
</defs>
</svg>

<svg xmlns="http://www.w3.org/2000/svg" width="142" height="174" fill="none" viewBox="0 0 142 174"><g fill="#000" clip-path="url(#a)"><path d="M54.897 173.749c-1.095-.151-2.186-.398-3.285-.438-8.19-.302-16.387-.451-24.57-.881-4.698-.247-9.398-.763-14.051-1.459-4.967-.744-9.915-6.676-10.102-12.077-.474-13.669-1.01-27.341-1.159-41.016-.343-31.522-.422-63.045-.738-94.567-.047-4.645 0-9.164 1.866-13.51 1.477-3.434 3.513-6.29 7.311-7.35a17.4 17.4 0 0 1 3.962-.614c6.055-.234 12.127-.203 18.17-.61 21.104-1.42 42.202-.27 63.306-.141a15.5 15.5 0 0 1 11.361 4.623c6.826 6.49 14.155 12.446 21.236 18.668 2.697 2.368 5.185 4.977 7.942 7.27 2.66 2.212 3.61 5.026 3.684 8.301.209 9.53.386 19.062.621 28.592.377 15.25.937 30.498 1.137 45.748.146 11.098-.161 22.2-.272 33.301-.039 3.813-.157 7.627-.131 11.439.065 8.857-6.967 13.664-14.294 13.788-13.353.225-26.708.322-40.062.506a34 34 0 0 0-3.622.423zM93.85 9.505c-2.05-.171-3.814-.42-5.583-.45a11541 11541 0 0 0-42.097-.64c-6.394-.086-12.79-.122-19.184-.16-3.249-.02-6.505-.123-9.746.04-4.642.235-6.005 1.572-6.835 6.255a42.9 42.9 0 0 0-.485 12.724c.22 1.78.335 3.573.344 5.368q.114 60.067.189 120.136a20 20 0 0 0 .11 3.02c.794 5.099 3.491 8.231 9.079 8.457 21.776.876 43.552.874 65.335.493 10.889-.19 21.78-.267 32.67-.388 2.691-.03 5.389.075 8.073-.066 4.426-.238 6.767-2.656 6.719-7.084-.054-4.928-.419-9.853-.501-14.782-.096-5.719.099-11.444-.066-17.161-.404-14.236-1.099-28.466-1.372-42.704-.222-11.661 0-23.332.012-34.998 0-.945-.111-1.89-.144-2.414-7.49 0-14.56.062-21.629-.036a31.4 31.4 0 0 1-6.656-.8c-3.537-.825-5.647-3.05-5.746-6.869-.031-1.232-.131-2.464-.245-3.692-.724-7.921-1.46-15.841-2.242-24.249m31.36 26.33.204-.699-22.256-20.183-.511.312 3.307 21.72z"/><path d="M101.852 133.426c1.044-4.509 1.924-8.495 2.905-12.455a34.3 34.3 0 0 1 1.722-5.419 7.7 7.7 0 0 1 2.201-2.893 3.403 3.403 0 0 1 4.618.09c.408.393.712.882.884 1.423.53 1.464.675 3.04.423 4.577-1.58 7.783-3.327 15.533-5.105 23.273a12.6 12.6 0 0 1-1.633 4.009c-2.118 3.244-6.093 3.407-8.476.363a19.5 19.5 0 0 1-2.34-4.063c-3.798-8.481-7.526-16.993-11.302-25.483-.643-1.444-.915-2.818.475-3.948 1.193-.972 3.236-.692 4.544.733a16.5 16.5 0 0 1 2.284 3.298c2.56 4.725 5.047 9.495 7.564 14.242.306.586.632 1.16 1.236 2.253m-37.366-10.418c2.209 1.009 4.36 1.907 6.432 2.961 2.385 1.213 4.994 2.219 6.984 3.923 4.622 3.956 6.074 8.957 2.733 14.693-2.949 5.063-8.407 7.023-14.217 4.895a28.5 28.5 0 0 1-4.824-2.332 4.16 4.16 0 0 1-2.131-3.61c-.057-2.556 1.72-3.937 4.196-3.187a40 40 0 0 0 4.476 1.396c3.09.546 4.66-.428 6.029-3.441-.627-2.312-2.54-3.269-4.512-4.141-2.356-1.041-4.803-1.904-7.078-3.099-5.9-3.093-7.359-7.816-4.325-13.783 1.928-3.792 4.8-6.476 9.197-7.088 1.722-.238 3.377.035 4.66 1.367a3.05 3.05 0 0 1 .871 3.374c-.45 1.195-1.387 1.583-2.614 1.745-3.817.511-4.872 1.614-5.877 6.327M44.05 142.683c1.683 0 3.367-.015 5.049.004 2.44.029 3.848 1.028 4.245 2.974.394 1.925-.78 3.897-3.119 4.524a33.5 33.5 0 0 1-12.995 1.089 28 28 0 0 1-4.595-.984c-8.497-2.596-12.625-8.775-11.607-17.58.777-6.718 3.568-12.465 9.028-16.665 2.334-1.795 4.945-3.281 8.018-2.949a7.9 7.9 0 0 1 3.844 1.673 2.47 2.47 0 0 1-1.57 4.27c-4.108.087-6.612 2.479-8.537 5.659a17.74 17.74 0 0 0-2.722 9.911c.14 4.065 1.714 6.21 5.62 7.368a23 23 0 0 0 4.625.77c1.561.127 3.14.027 4.711.027z"/></g><defs><clipPath id="a"><path fill="#fff" d="M.842.01h141.113v173.93H.842z"/></clipPath></defs></svg>
